X: 1
T: Aupr\`es de ma Blonde
O: trad. France
M: 6/8
L: 1/8
Z: 2011 John Chambers <jc:trillian.mit.edu>
B: "Chants de France" The Thrift Press, Ithaca, New York, 1934
N: No editor or arranger named
K: G
B | "G"B2c "(D)"B2A | "G"G3 G2B | "G"d2d "A7"e2e2 | "D"d3- dz :|
w:1.~Au jar-din de mon p\`e-re, les laur-iers song fleu-ris
w:2.~La caill', la tour-te-rel-le et la jo-li' per-drix
w:3.~Ell' chan-te pour les fil-les qui n'ont point de ma-ri
d | "E7"e2e e2B | "Am"c3 "(C)"c2c | "D7"d2d d2A | "G"B3- Bz2 |
w:1.~Tous les ois-eaux de mon-de vont y fair-e leurs nids
w:2.~Et la blan-che co-lom-be qui chan-te jour et nuit
w:3.~C'est pas  pour moi qu'elle chan-te, car j'en ai un jo-li
|: "G"G3 "D7"ABc | "G"B3 d3 | "Am"A2c "D7"B2A |1 "G"G2E "(D7)"D2z :| "G"G3- Gz |]
w: Au-pr\`es de ma blon-de qu'il fait bon, fait bon!
w: Au-pr\`es de ma blon-de qu'il fait bon dor- | | mir.
